X:1
T:Give the Fiddler a Dram
L:1/8
M:4/4
I:linebreak $
K:G
V:1 treble+8
V:1
|: "G"D2 G2 BA G2 |"F" A=F F2 F2 FE |"D" D2 d2 de dc |"G" BG G2 G2 GE | D2 G2 BA G2 |"F" A=F F2 F2 FE |$
 "D" D2 d2 de dc |"G" BG G2 G2 ef ::"G" g2 g2 ga gf |"C" ec c2 c2 fg |"A" a2 a2 ab ag | $
"D"fd d2 d2 ef |"G"  g2 g2 ga gf |"C" ec c2 cA Bc |"D" d2 d2 de dc |"G" BG G2 G4 :|
